X:16
T:Whinny Hills of Leitrim, The
R:slip jig
Z:id:hn-slipjig-16
M:9/8
K:Dmix
~A3 dcA ~d3|~A3 dcA ~G3|~A3 dcA ~d3|1 eag efe dBG:|2 eag efe dBA||
K:G
|:GBB GBd ~g3|GBB GAG FED|GBB GBd ~g3|1 fgf efe dBA:|2 fgf efe dBG||
<end>
<start>
